X:1
T:Title
%%score { ( 1 3 ) | ( 2 4 ) }
L:1/8
Q:1/4=110
M:4/4
K:F
V:1 treble nm="Grand Piano"
V:3 treble 
V:2 bass 
V:4 bass 
V:1
 c4 A2 d2 | c4 A2 G2 | [DF]4 D2 F2 | C6 z2 | F4 F2 F2 | B4 A2 G2 | F4 E2 F2 | E4- [Ec]2 z2 | %8
w: B.~J.~Nowlan * *||||||||
 c4 A2 d2 | c4 A2 G2 | [DF]4 D2 F2 | C6 z2 | C4 F2 A2 | c4 A2 [CF]2 | [CEG]4 D2 E2 | F6 z2 | %16
w: ||||||||
 B4 B2 B2 | A6 z2 | d4 d2 d2 | c6 z2 | F4 G2 A2 | c2 z2 z4 | A4 A3 G | F6 z2 |] %24
w: ||||||||
V:2
 [F,A,F]4 [F,CF]2 [F,B,F]2 | [F,A,F]4 [F,CF]2 [F,B,C]2 | [B,,B,]4 [B,,F,B,]2 [D,F,B,]2 | %3
 [F,A,]6 z2 | [F,A,C]4 [F,A,C]2 [F,A,C]2 | [F,DF]4 [F,CF]2 [B,CE]2 | [A,C]4 [G,B,C]2 [F,A,C]2 | %7
 [C,C]6 z2 | [F,A,F]4 [F,CF]2 [F,B,F]2 | [F,A,F]4 [F,CF]2 [F,B,C]2 | %10
 [B,,B,]4 [B,,F,B,]2 [D,F,B,]2 | [F,A,]6 z2 | [F,A,]4 [F,A,C]2 [F,CF]2 | [F,A,F]4 [F,CF]2 A,,2 | %14
 C,4 [C,B,C]2 [C,B,C]2 | [F,A,C]6 z2 | [F,DF]4 [F,DF]2 [F,DF]2 | [F,CF]6 z2 | %18
 [B,F]4 [B,F]2 [B,F]2 | [F,A,F]6 z2 | [F,A,C]4 [F,G,C]2 [F,C]2 | %21
 z2[K:treble] B2[K:bass] B,,2 [B,,F,]2 | [C,F,C]4 [C,F,C]3 [C,B,C] | [F,A,C]6 z2 |] %24
V:3
 x8 | x8 | x8 | x8 | x8 | x8 | x8 | G4 z4 | x8 | x8 | x8 | x8 | x8 | x8 | x8 | x8 | x8 | x8 | x8 | %19
 x8 | x8 | D4 [B,DF]2 [^CG]2 | x8 | x8 |] %24
V:4
 x8 | x8 | x8 | x8 | x8 | x8 | x8 | x8 | x8 | x8 | x8 | x8 | x8 | x8 | x8 | x8 | x8 | x8 | x8 | %19
 x8 | x8 | [B,,F,]4[K:treble][K:bass] z4 | x8 | x8 |] %24

